X: 23555
T: Light And Airy
R: jig
M: 6/8
K: Fmajor
c3 AcA|FAc fcA|c3 AcA|G2 A B2 d|
c3 AcA|FAc fcA|BgB AfA|G2 A B2:|
fgf fcA|fgf fag|fgf fcA|G2 A B2 d|
faf gbg|faf ege|fed cBA|G2 A B2:|
cAF FAF|cAF Acf|cAF FAF|G2 A B2 d|
cAF FAc|fed cBA|BgB AfA|G2 A B2:|
fgf fcA|fgf fag|fgf fcA|G2 A B2 d|
faf gbg|faf ege|fdf cAF|G2 A B2:|

